icons/svg/24x24/link/outline.svg

<svg width="24" height="24" fill="none" xmlns="http://www.w3.org/2000/svg">
  <path fill-rule="evenodd" clip-rule="evenodd" d="M14.293 8.293l-6 6a.999.999 0 101.414 1.414l6-6a.999.999 0 10-1.414-1.414zm6.242-4.828A4.965 4.965 0 0017 2a4.965 4.965 0 00-3.535 1.465l-3.001 3 1.414 1.414 3.001-3c1.133-1.133 3.109-1.133 4.242 0C19.688 5.445 20 6.198 20 7s-.312 1.555-.879 2.121l-3 3 1.414 1.414 3-3A4.96 4.96 0 0022 7a4.96 4.96 0 00-1.465-3.535zm-8.413 12.656l1.414 1.414-3 3A4.967 4.967 0 017 22a4.968 4.968 0 01-3.536-1.465A4.966 4.966 0 012 17c0-1.336.52-2.591 1.464-3.535l3-3 1.415 1.414-3.001 3A2.98 2.98 0 004 17c0 .802.312 1.555.878 2.121 1.134 1.133 3.11 1.133 4.244 0l3-3z" fill="#000"/>
</svg>

<svg xmlns="http://www.w3.org/2000/svg" width="24" height="24" viewBox="0 0 24 24">
  <path fill-rule="evenodd" d="M14.293,8.293 L8.293,14.293 C7.902,14.684 7.902,15.316 8.293,15.707 C8.488,15.902 8.744,16 9,16 C9.256,16 9.512,15.902 9.707,15.707 L15.707,9.707 C16.098,9.316 16.098,8.684 15.707,8.293 C15.316,7.902 14.684,7.902 14.293,8.293 L14.293,8.293 Z M20.535,3.465 C19.592,2.521 18.336,2 17,2 C15.664,2 14.408,2.521 13.465,3.465 L10.464,6.465 L11.878,7.879 L14.879,4.879 C16.012,3.746 17.988,3.746 19.121,4.879 C19.688,5.445 20,6.198 20,7 C20,7.802 19.688,8.555 19.121,9.121 L16.121,12.121 L17.535,13.535 L20.535,10.535 C21.48,9.592 22,8.336 22,7 C22,5.664 21.48,4.408 20.535,3.465 L20.535,3.465 Z M12.122,16.121 L13.536,17.535 L10.536,20.535 C9.591,21.48 8.336,22 7,22 C5.665,22 4.409,21.48 3.464,20.535 C2.52,19.591 2,18.336 2,17 C2,15.664 2.52,14.409 3.464,13.465 L6.464,10.465 L7.879,11.879 L4.878,14.879 C4.312,15.445 4,16.198 4,17 C4,17.802 4.312,18.555 4.878,19.121 C6.012,20.254 7.988,20.254 9.122,19.121 L12.122,16.121 Z"/>
</svg>
